X: 158
T: Big Eyed Rabbit
B: canberra pickers and fiddlers
B: old time tunes update
B: tunes
M:C|
L:1/8
R: Reel
Q: 1/4=100
K:A
V:1 
EF |: "A"A2 AA cA B2 | A3B A2 (A2 | A)BAc BAcA | "D"f3e f2 (f2 |
f)gaa afed | "A"ce2f e2 fe | cBcB AGFE | "E"B3 c BABc |
AcBA FEFG |[1 "A"A3B A2 EF :|[2 "A"A3B A2 (A2 ||: "A"A)cBA FEFE |
"E"B3 c BABc | AcBA FEFG |[1 "A"A3 B A2 (A2 :|[2 "A"A3B A2 ||
% abcbook-tune_id 67a7d9ec582f90943ec6aef1
% abcbook-tune_composer_id 
% abcbook-link-0 https://www.youtube.com/watch?v=U_Cx7gkvneU
% abcbook-link-title-0 Tommy Jarrell &amp; Fred Cockerham - Big Eyed Rabbit
% abcbook-boost 0
% abcbook-difficulty 0
% abcbook-tags old time tunes
% abcbook-tablature 
% abcbook-transpose 5
% abcbook-tuning ADAE
% abcbook-lastupdated 1739240081673
% abcbook-src-url 
% abcbook-soundfonts 
% abcbook-repeats 1
%%MIDI transpose 5


